Newaita/actions/22/align-horizontal-right-out.svg

<?xml version="1.0" encoding="UTF-8"?>
<svg xmlns="http://www.w3.org/2000/svg" xmlns:xlink="http://www.w3.org/1999/xlink" width="22pt" height="22pt" viewBox="0 0 22 22" version="1.1">
<g id="surface1">
<path style=" stroke:none;fill-rule:nonzero;fill:rgb(25.882354%,25.882354%,25.882354%);fill-opacity:1;" d="M 10.234375 2.21875 L 10.234375 19.046875 C 10.234375 19.421875 10.539062 19.726562 10.914062 19.726562 C 11.292969 19.726562 11.597656 19.421875 11.597656 19.046875 L 11.597656 2.21875 C 11.597656 1.839844 11.292969 1.535156 10.914062 1.535156 C 10.539062 1.535156 10.234375 1.839844 10.234375 2.21875 Z M 10.234375 2.21875 "/>
<path style=" stroke:none;fill-rule:nonzero;fill:rgb(25.882354%,25.882354%,25.882354%);fill-opacity:0.988235;" d="M 9.097656 2.902344 C 9.097656 2.144531 8.488281 1.535156 7.730469 1.535156 L 2.273438 1.535156 C 1.519531 1.535156 0.910156 2.144531 0.910156 2.902344 L 0.910156 7.449219 C 0.910156 8.203125 1.519531 8.8125 2.273438 8.8125 L 7.730469 8.8125 C 8.488281 8.8125 9.097656 8.203125 9.097656 7.449219 Z M 7.730469 3.355469 L 7.730469 6.992188 C 7.730469 7.246094 7.527344 7.449219 7.277344 7.449219 L 2.730469 7.449219 C 2.476562 7.449219 2.273438 7.246094 2.273438 6.992188 L 2.273438 3.355469 C 2.273438 3.105469 2.476562 2.902344 2.730469 2.902344 L 7.277344 2.902344 C 7.527344 2.902344 7.730469 3.105469 7.730469 3.355469 Z M 7.730469 3.355469 "/>
<path style=" stroke:none;fill-rule:nonzero;fill:rgb(25.882354%,25.882354%,25.882354%);fill-opacity:0.988235;" d="M 9.097656 12.90625 C 9.097656 12.148438 8.488281 11.542969 7.730469 11.542969 L 3.183594 11.542969 C 2.425781 11.542969 1.820312 12.148438 1.820312 12.90625 L 1.820312 17.453125 C 1.820312 18.210938 2.425781 18.820312 3.183594 18.820312 L 7.730469 18.820312 C 8.488281 18.820312 9.097656 18.210938 9.097656 17.453125 Z M 7.730469 13.359375 L 7.730469 17 C 7.730469 17.25 7.527344 17.453125 7.277344 17.453125 L 3.636719 17.453125 C 3.386719 17.453125 3.183594 17.25 3.183594 17 L 3.183594 13.359375 C 3.183594 13.109375 3.386719 12.90625 3.636719 12.90625 L 7.277344 12.90625 C 7.527344 12.90625 7.730469 13.109375 7.730469 13.359375 Z M 7.730469 13.359375 "/>
<path style=" stroke:none;fill-rule:nonzero;fill:rgb(100%,43.921569%,26.274511%);fill-opacity:0.988235;" d="M 20.011719 12.453125 C 20.011719 11.695312 19.402344 11.085938 18.648438 11.085938 L 14.097656 11.085938 C 13.34375 11.085938 12.734375 11.695312 12.734375 12.453125 L 12.734375 17.910156 C 12.734375 18.664062 13.34375 19.273438 14.097656 19.273438 L 18.648438 19.273438 C 19.402344 19.273438 20.011719 18.664062 20.011719 17.910156 Z M 18.648438 12.90625 L 18.648438 17.453125 C 18.648438 17.707031 18.445312 17.910156 18.191406 17.910156 L 14.554688 17.910156 C 14.300781 17.910156 14.097656 17.707031 14.097656 17.453125 L 14.097656 12.90625 C 14.097656 12.652344 14.300781 12.453125 14.554688 12.453125 L 18.191406 12.453125 C 18.445312 12.453125 18.648438 12.652344 18.648438 12.90625 Z M 18.648438 12.90625 "/>
</g>
</svg>

<svg xmlns="http://www.w3.org/2000/svg" width="22pt" height="22pt" viewBox="0 0 22 22"><path d="M10.234 2.219v16.828a.681.681 0 1 0 1.363 0V2.219a.682.682 0 1 0-1.363 0zm0 0" fill="#424242"/><path d="M9.098 2.902c0-.757-.61-1.367-1.368-1.367H2.273c-.753 0-1.363.61-1.363 1.367V7.45c0 .754.61 1.364 1.363 1.364H7.73c.758 0 1.368-.61 1.368-1.364zm-1.368.453v3.637a.454.454 0 0 1-.453.457H2.73a.455.455 0 0 1-.457-.457V3.355c0-.25.204-.453.457-.453h4.547c.25 0 .453.203.453.453zm0 0M9.098 12.906a1.36 1.36 0 0 0-1.368-1.363H3.184c-.758 0-1.364.605-1.364 1.363v4.547a1.36 1.36 0 0 0 1.364 1.367H7.73c.758 0 1.368-.61 1.368-1.367zm-1.368.453V17c0 .25-.203.453-.453.453h-3.64A.453.453 0 0 1 3.184 17v-3.64c0-.25.203-.454.453-.454h3.64c.25 0 .453.203.453.453zm0 0" fill="#424242" fill-opacity=".988"/><path d="M20.012 12.453c0-.758-.61-1.367-1.364-1.367h-4.55c-.754 0-1.364.61-1.364 1.367v5.457c0 .754.61 1.363 1.364 1.363h4.55c.754 0 1.364-.609 1.364-1.363zm-1.364.453v4.547a.455.455 0 0 1-.457.457h-3.636a.455.455 0 0 1-.457-.457v-4.547c0-.254.203-.453.457-.453h3.636c.254 0 .457.2.457.453zm0 0" fill="#ff7043" fill-opacity=".988"/></svg>
